X: 4
T: Wzywam Cię, Boże, świadku mojej niewinności,
C: Mikołaj Gomółka
%%abc-version 2.0
%%abcx-abcm2ps-target-version 5.9.1 (29 Sep 2008)
%%abc-creator hum2abc beta
%%abcx-conversion-date 2021/10/04 07:59:09
%%abc-edited-by Anna Matuszewska
%%abcx-initial-encoding-date 2020-02-04
%%humdrum-veritas 3173342928
%%humdrum-veritas-data 727066420
%%linebreak <none>
%%barnumbers 0
L: 1/4
M: C|
N: Derived from pl-wn--sd-xvi-qu-273--004_gomolka-mikolaj--wzywam-cie-boze-swiadku-mojej-niewinnosci.krn
%%staves [1 2 3 4]
V: 1
V: 2
V: 3 clef=alto
V: 4 clef=bass
K: F
[V:1] G4G2e2 [I:setbarnb 3][|] 
[V:2] D4_E2G3 [|] 
[V:3] B,4B,2C2 [|] 
[V:4] G,4_E,2C,2 [|] 
[V:1] d4^c2d2 [|] 
[V:2] AB2A2A2 [|] 
[V:3] D2G2E2FE [|] 
[V:4] G,4A,2D,2 [|] 
[V:1] B4A2c2 [|] 
[V:2] G2>F2E2F2 [|] 
[V:3] DCD2^C2A,2 [|] 
[V:4] G,4A,2F,2 [|] 
[V:1] B2A4G2 [|] 
[V:2] DEFEDCD2 [|] 
[V:3] B,2C2D4 [|] 
[V:4] G,2A,2B,4 [|] 
[V:1] A2A2B2F2 [|] 
[V:2] E2F2G2F4 [|] 
[V:3] C2D2D3C [|] 
[V:4] A,2D,2B,3A, [|] 
[V:1] G2>A2B3A [|] 
[V:2] E2F2F2 [|] 
[V:3] B,A,B,CD4 [|] 
[V:4] G,F,G,2D,4 [|] 
[V:1] G2G2F2_E4 [|] 
[V:2] _E2E2D2B,3 [|] 
[V:3] B,2C2A,2G,4 [|] 
[V:4] _E,2C,2D,2_E,4 [|] 
[V:1] F2_E4 [|] 
[V:2] CD2C3B, [|] 
[V:3] B,A,G,F,G,2 [|] 
[V:4] B,,2C,4 [|] 
[V:1] D4D2F4 [|] 
[V:2] A,G,A,2B,2D4 [|] 
[V:3] ^F,4G,2A,4 [|] 
[V:4] D,4G,,2D,4 [|] 
[V:1] F2G4 [|] 
[V:2] D2B,2C2 [|] 
[V:3] B,2G,4 [|] 
[V:4] B,,2E,4 [|] 
[V:1] F4B6 [|] 
[V:2] D4D4 [|] 
[V:3] A,4B,3C [|] 
[V:4] D,4G,6 [|] 
[V:1] A2A2d4 [|] 
[V:2] G,2A,2A2B2 [|] 
[V:3] D6D2 [|] 
[V:4] F,2F,2G,2 [|] 
[V:1] ^c2c2d2 [|] 
[V:2] A2A2>G2F2 [|] 
[V:3] F2E2E2D2 [|] 
[V:4] A,4A,,2D,2 [|] 
[V:1] B4A2G2 [|] 
[V:2] G4D2G2 [|] 
[V:3] D2D2>C2B,A, [|] 
[V:4] G,4^F,2G,2 [|] 
[V:1] B2c2e2d2 [|] 
[V:2] G2>F2EFG2 [|] 
[V:3] G,2G,2C2D2 [|] 
[V:4] E,2>D,2C,2B,,2 [|] 
[V:1] c4B2d3 [|] 
[V:2] G4G2B2 [|] 
[V:3] _E4D2D2 [|] 
[V:4] C,4G,,2G,2 [|] 
[V:1] cB2e4 [|] 
[V:2] A2GFEFG4 [|] 
[V:3] D2D2C3B, [|] 
[V:4] ^F,2G,2C,4 [|] 
[V:1] d2>c2_B4 [|] 
[V:2] F2!arpeggio!G4 [|] 
[V:3] A,G,A,2!arpeggio!G,4 [|] 
[V:4] D,4!arpeggio!G,,4 [|] 


